!!!ONB: MCCC : IFC0059_03 : Extracted Monophonic Melody
!!!COM: Chopin, Frédéric
!!!OPR: Mazurkas
!!!OMV: 3
!!!SCT: Op.68 (Posthumous)
!!!ODT: 1826///
**kern
*thru
*staff1
*Ipiano
*clefG2
*k[]
*C:
*M3/4
*MM144
4g
=1
4.ee
8dd#
8ff
8ee
=2
8dd
8cc#
4ee
4dd
=3
4.dd
8cc#
8ee
8dd
=4
8cc
16r
16b
4dd
4cc
=5
4.a
8g#
8b
8a
=6
8g
16r
16cc
[2ee
=7
8ee]
8dd
8cc#
8dd
8ee
8ff
=8
2aa
4gg
=9
4.ee
8dd#
8ff
8ee
=10
8dd
8cc#
4ee
4dd
=11
4.dd
8cc#
8ee
8dd
=12
8cc
8b
4dd
4cc
=13
4.a
8g#
8b
8a
=14
8g
16r
16cc
[2ee
=15
8ee]
8dd
8cc#
8dd
8ff
16r
16ee
=16
8dd
16r
16ee
4cc
4g
=17
4.ee
8dd#
8ff
8ee
=18
8dd
8cc#
4ee
4dd
=19
4.dd
8cc#
8ee
8dd
=20
8cc
16r
16b
4dd
4cc
=21
4.a
8g#
8b
8a
=22
8g
16r
16cc
[2ee
=23
8ee]
8dd
8cc#
8dd
8ee
8ff
=24
2aa
4gg
=25
4.ee
8dd#
8ff
8ee
=26
8dd
8cc#
4ee
4dd
=27
4.dd
8cc#
8ee
8dd
=28
8cc
8b
4dd
4cc
=29
4.a
8g#
8b
8a
=30
8g
16r
16cc
[2ee
=31
8ee]
8dd
8cc#
8dd
8ff
16r
16ee
=32
8dd
16r
16ee
2cc
=33
2.d
=34
8b
8cc
4dd
4ee
=35
2.d
=36
8b
8a
2g
=37
2.d
=38
8b
8cc
4dd
4ee
=39
2.d
=40
8b
8cc
4dd
4g
=41
4.ee
8dd#
8ff
8ee
=42
8dd
8cc#
4ee
4dd
=43
4.dd
8cc#
8ee
8dd
=44
8cc
16r
16b
4dd
4cc
=45
4.a
8g#
8b
8a
=46
8g
16r
16cc
[2ee
=47
8ee]
8dd
8cc#
8dd
8ee
8ff
=48
2aa
4gg
=49
4.ee
8dd#
8ff
8ee
=50
8dd
8cc#
4ee
4dd
=51
4.dd
8cc#
8ee
8dd
=52
8cc
8b
4dd
4cc
=53
4.a
8g#
8b
8a
=54
8g
16r
16cc
[2ee
=55
8ee]
8dd
8cc#
8dd
8ff
16r
16ee
=56
8dd
16r
16ee
2cc
==
*-
